!!!!SEGMENT: pl-wn--mus-iii-75-272-3_zelenski-wladyslaw--piesni-kazimierza-tetmajera-na-aniol-panski.krn
!!!cenid: 18xx:3765
!!!COM: Żeleński, Władysław
!!!COM-rismid: pe41024455
!!!CDT:
!!!CNT:
!!!OTL: Pieśni Kazimierza Tetmajera/Na Anioł Pański
!!!PDT:
!!!AGN:
!!!SMS-siglum: PL-Wn
!!!SMS-shelfmark: Mus.III.75.272/3
!!!SMS-shelfwork: W
!!!SMS-variant:
!!!SMS-altvar:
!!!NIFC-rismid:
!!!URL-scan: https://polona.pl/item/piesni-kazimierza-tetmajera-3-na-aniol-panski,NzEzNTMxMTE/0/#info:metadata
!!!ONB-nifc:
!!!OMD: Sostenuto.
!!!AIN: 1 piano 1 vox
!!!key: D
**kern	**kern	**dynam	**kern	**text	**dynam
*part2	*part2	*part2	*part1	*part1	*part1
*staff3	*staff2	*	*staff1	*staff1	*
*I"FORTEPIAN.	*I"FORTEPIAN.	*	*I"ŚPIEW.	*	*
*Ipiano	*Ipiano	*	*Ivox	*	*
*ICklav	*ICklav	*	*ICvox	*	*
*IGacmp	*IGacmp	*	*IGsolo	*	*
*clefF4	*clefG2	*	*clefG2	*	*
*k[f#c#]	*k[f#c#]	*	*k[f#c#]	*	*
*D:	*D:	*	*D:	*	*
*M4/4	*M4/4	*	*M4/4	*	*
*met(c)	*met(c)	*	*met(c)	*	*
=1	=1	=1	=1	=1	=1
*^	*^	*	*	*	*
*	*	*Xtuplet	*	*	*	*	*
(4AA/	2DD\	12f#/L	4f#\	pp	1r	.	.
.	.	12a/	.	.	.	.	.
.	.	12a/J	.	.	.	.	.
4G/)	.	4e/	12e\L	.	.	.	.
.	.	.	12A\	.	.	.	.
.	.	.	12A\J	.	.	.	.
(4AA/	2DD\	12d/L	4d\	.	.	.	.
.	.	12a/	.	.	.	.	.
.	.	12a/J	.	.	.	.	.
4G/)	.	4B/	12B\L	.	.	.	.
.	.	.	12A\	.	.	.	.
.	.	.	12A\J	.	.	.	.
=2	=2	=2	=2	=2	=2	=2	=2
(4AA/	2DD\	12d/L	4d\	.	2r	.	.
.	.	12a/	.	.	.	.	.
.	.	12a/J	.	.	.	.	.
4G/)	.	4e/	12e\L	.	.	.	.
.	.	.	12A\	.	.	.	.
.	.	.	12A\J	.	.	.	.
(4AA/	2DD\	12f#/L	4f#\	.	4r	.	.
.	.	12a/	.	.	.	.	.
.	.	12a/J	.	.	.	.	.
!	!	!	!	!	!	!	!LO:DY:a
4G/)	.	4e/	12e\L	.	4A/	Na	p
.	.	.	12A\	.	.	.	.
.	.	.	12A\J	.	.	.	.
=3	=3	=3	=3	=3	=3	=3	=3
(4AA/	2DD\	12f#/L	4f#\	.	4d/	A-	.
.	.	12a/	.	.	.	.	.
.	.	12a/J	.	.	.	.	.
4G/)	.	4e/	12e\L	.	4e/	-nioł	.
.	.	.	12A\	.	.	.	.
.	.	.	12A\J	.	.	.	.
(4AA/	2DD\	12d/L	4d\	.	(4f#/	Pań-	.
.	.	12a/	.	.	.	.	.
.	.	12a/J	.	.	.	.	.
4G/)	.	4B/	12B\L	.	8g/)	.	.
.	.	.	12A\	.	.	.	.
.	.	.	.	.	8e/	-ski	.
.	.	.	12A\J	.	.	.	.
!!LO:LB:g=original
=4	=4	=4	=4	=4	=4	=4	=4
(4AA/	2DD\	12d/L	4d\	.	4f#/	bi-	.
.	.	12a/	.	.	.	.	.
.	.	12a/J	.	.	.	.	.
4G/)	.	4e/	12e\L	.	4a/	-ją	.
.	.	.	12A\	.	.	.	.
.	.	.	12A\J	.	.	.	.
(4AA/	2DD\	12f#/L	4f#\	.	4b/	dzwo-	.
.	.	12a/	.	.	.	.	.
.	.	12a/J	.	.	.	.	.
4F#/)	.	4d/	12d\L	.	8f#/	-ny,	.
.	.	.	12A\	.	.	.	.
.	.	.	.	.	8f#/	Niech	.
.	.	.	12A\J	.	.	.	.
=5	=5	=5	=5	=5	=5	=5	=5
(4AA/	2DD\	12f#/L	4f#\	.	4a/	bę-	.
.	.	12a/	.	.	.	.	.
.	.	12a/J	.	.	.	.	.
4F#/)	.	4d/	12d\L	.	8g/	-dzie	.
.	.	.	12A\	.	.	.	.
.	.	.	.	.	8f#/	Ma-	.
.	.	.	12A\J	.	.	.	.
!LO:N:vis=2	!	!	!	!	!	!	!
(4GG/	2GG\	12B/L	4B\	.	8e/	-ry-	.
.	.	12a/	.	.	.	.	.
.	.	.	.	.	8d/	-ja	.
.	.	12a/J	.	.	.	.	.
4G/)	.	4e/	12e\L	.	8g/	po-	.
.	.	.	12A\	.	.	.	.
.	.	.	.	.	8d/	-zdro-	.
.	.	.	12A\J	.	.	.	.
=6	=6	=6	=6	=6	=6	=6	=6
!LO:N:vis=2	!	!	!	!	!	!	!
(4AA/	2AA\	12d/L	4d\	.	4f#/	-wio-	.
.	.	12a/	.	.	.	.	.
.	.	12a/J	.	.	.	.	.
4G/)	.	4B/	12B\L	.	2e/	-na,	.
.	.	.	12A\	.	.	.	.
.	.	.	12A\J	.	.	.	.
!LO:N:vis=2	!	!	!	!	!	!	!
(4AA/	2AA\	12c#/L	4c#\	.	.	.	.
.	.	12a/	.	.	.	.	.
.	.	12a/J	.	.	.	.	.
4G/)	.	4e/	12e\L	.	4A/	Niech	.
.	.	.	12A\	.	.	.	.
.	.	.	12A\J	.	.	.	.
=7	=7	=7	=7	=7	=7	=7	=7
(4AA/	2DD\	12f#/L	4f#\	.	4d/	bę-	.
.	.	12a/	.	.	.	.	.
.	.	12a/J	.	.	.	.	.
4G/)	.	4e/	12e\L	.	4e/	-dzie	.
.	.	.	12A\	.	.	.	.
.	.	.	12A\J	.	.	.	.
(4AA/	2DD\	12d/L	4d\	.	(4f#/	Chry-	.
.	.	12a/	.	.	.	.	.
.	.	12a/J	.	.	.	.	.
4G/)	.	4B/	12B\L	.	8g/)	.	.
.	.	.	12A\	.	.	.	.
.	.	.	.	.	8e/	-stus	.
.	.	.	12A\J	.	.	.	.
!!LO:LB:g=original
=8	=8	=8	=8	=8	=8	=8	=8
(4AA/	2DD\	12d/L	4d\	.	4f#/	po-	.
.	.	12a/	.	.	.	.	.
.	.	12a/J	.	.	.	.	.
4G/)	.	4e/	12e\L	.	4a/	-zdro-	.
.	.	.	12A\	.	.	.	.
.	.	.	12A\J	.	.	.	.
(4AA/	2DD\	12f#/L	4f#\	.	4b/	-wio-	.
.	.	12a/	.	.	.	.	.
.	.	12a/J	.	.	.	.	.
4F#/)	.	4d/	12d\L	.	8f#/	-ny	.
.	.	.	12A\	.	.	.	.
.	.	.	.	.	8f#/	Na	.
.	.	.	12A\J	.	.	.	.
=9	=9	=9	=9	=9	=9	=9	=9
!	!	!	!	!	!	!	!LO:HP:a
(4AA/	2DD\	12f#/L	4f#\	<	4.a/	A-	<
.	.	12a/	.	.	.	.	.
.	.	12a/J	.	.	.	.	.
4G/)	.	4e/	12e\L	.	.	.	.
.	.	.	12A\	.	.	.	.
.	.	.	.	.	8a/	-nioł	.
.	.	.	12A\J	.	.	.	.
(4AA/	2DD\	12d/L	4d\	.	4a/	Pań-	.
.	.	12a/	.	.	.	.	.
.	.	12a/J	.	.	.	.	.
4Fn/)	.	4B/	12B\L	.	4b\	-ski	.
.	.	.	12A\	.	.	.	.
.	.	.	12A\J	[[	.	.	[
=10	=10	=10	=10	=10	=10	=10	=10
!	!	!	!	!LO:HP:t=poco cresc.	!LO:TX:a:i:t=espres.	!	!
(4GG/	2CCn\	12e/L	4e\	<	4.ccn\	bi-	.
.	.	12a/	.	.	.	.	.
.	.	12a/J	.	.	.	.	.
4E/)	.	4cn/	12c\L	.	.	.	.
.	.	.	12A\	.	.	.	.
.	.	.	.	.	8b-X\	-ją	.
.	.	.	12A\J	.	.	.	.
(4Cn/	2FFn\	12fn/L	4f\	.	4a/	dzwo-	.
.	.	12a/	.	.	.	.	.
.	.	12a/J	.	.	.	.	.
4Fn/)	.	4e/	12e\L	.	8a/	-ny	.
.	.	.	12A\	.	.	.	.
.	.	.	.	.	8a/	w_nie-	.
.	.	.	12A\J	.	.	.	.
=11	=11	=11	=11	=11	=11	=11	=11
(4BB/	2BBB\	12c#/L	4c#X\	.	4.a/	-bio-	.
!	!	!	!	!	!	!	!LO:HP:a
.	.	12a/	.	.	.	.	>
.	.	12a/J	.	.	.	.	.
4F#X/)	.	4d#X/	12d#\L	>	.	.	.
.	.	.	12A\	.	.	.	.
.	.	.	.	.	8f#/	-sach	.
.	.	.	12A\J	.	.	.	.
(4BB/	2EE\	12B/L	4B\	.	8g/	kę-	.
.	.	12a/	.	.	.	.	.
.	.	.	.	.	8f#/	-dyś	.
.	.	12a/J	.	.	.	.	.
4G/)	.	4e/	12e\L	.	8e/	głos	.
.	.	.	12A\	.	.	.	]
.	.	.	.	.	8d/	ich	.
.	.	.	12A\J	]	.	.	.
!!LO:LB:g=original
=12	=12	=12	=12	=12	=12	=12	=12
!LO:N:vis=2	!	!	!	!	!	!	!LO:HP:a
(4AA/	2AA\	12d/L	[4d\	<	(4.f#/	ko-	<
.	.	12a/	.	.	.	.	.
.	.	12a/J	.	.	.	.	.
4F#/)	.	4d/	12d\L]	.	.	.	.
.	.	.	12A\	.	.	.	.
.	.	.	.	.	8d/)	.	.
.	.	.	12A\J	.	.	.	.
!LO:N:vis=2	!	!	!	!	!	!	!
(4AA/	2AA\	12d/L	4d\	.	4B/	-na,	.
.	.	12a/	.	.	.	.	.
.	.	12a/J	.	.	.	.	.
4G/)	.	4c#/	12c#\L	.	4e/	ich	.
.	.	.	12A\	.	.	.	[
.	.	.	12A\J	[[	.	.	.
=13	=13	=13	=13	=13	=13	=13	=13
!	!	!	!	!	!	!	!LO:HP:a
(4AA/	2DD\	12f#/L	4f#\	>	[2d/	głos.	>
.	.	12a/	.	.	.	.	.
.	.	12a/J	.	.	.	.	.
4G/)	.	4e/	12e\L	.	.	.	.
.	.	.	12A\	.	.	.	.
.	.	.	12A\J	.	.	.	.
(4AA/	2DD\	12d/L	4d\	.	8d/]	.	.
.	.	12a/	.	.	.	.	.
.	.	.	.	.	8r	.	]
.	.	12a/J	.	.	.	.	.
4G/)	.	4B/	12B\L	.	4r	.	.
.	.	.	12A\	.	.	.	.
.	.	.	12A\J	]	.	.	.
=14	=14	=14	=14	=14	=14	=14	=14
(4AA/	2DD\	12d/L	4d\	pp	1r	.	.
.	.	12a/	.	.	.	.	.
.	.	12a/J	.	.	.	.	.
4G/)	.	4e/	12e\L	.	.	.	.
.	.	.	12A\	.	.	.	.
.	.	.	12A\J	.	.	.	.
(4AA/	2DD\	12f#/L	4f#\	.	.	.	.
.	.	12a/	.	.	.	.	.
.	.	12a/J	.	.	.	.	.
4G/)	.	4e/	12e\L	.	.	.	.
.	.	.	12A\	.	.	.	.
.	.	.	12A\J	.	.	.	.
=15	=15	=15	=15	=15	=15	=15	=15
(4AA/	[2DD\	12d/L	[4d\	.	1r	.	.
.	.	12a/	.	.	.	.	.
.	.	12a/J	.	.	.	.	.
[4F#/)	.	4d/_	12d\L	.	.	.	.
.	.	.	12A\	.	.	.	.
.	.	.	[12A\J	.	.	.	.
8F#/]	4DD\]	8d/L]	4A\]	.	.	.	.
8r	.	(16a/L	.	pp	.	.	.
.	.	16dd/JJ	.	.	.	.	.
4r	4ryy	4ryy	16a\LL	.	.	.	.
.	.	.	16dd\	.	.	.	.
.	.	.	16a\	.	.	.	.
.	.	.	16dd\JJ)	.	.	.	.
*v	*v	*	*	*	*	*	*
*	*v	*v	*	*	*	*
!!LO:PB:g=original
=16||	=16||	=16||	=16||	=16||	=16||
!!!OMD: Poco piu mosso.
!!!key: g
*clefG2	*	*	*	*	*
*k[b-e-]	*k[b-e-]	*	*k[b-e-]	*	*
(2f#X/	16a\LL	.	2r	.	.
.	16dd\	.	.	.	.
.	16a\	.	.	.	.
.	16dd\JJ	.	.	.	.
.	16a\LL	.	.	.	.
.	16dd\	.	.	.	.
.	16a\	.	.	.	.
.	16dd\JJ	.	.	.	.
4fn/)	16a\LL	.	8r	.	.
.	16dd\	.	.	.	.
!	!	!	!LO:TX:a:i:t=dolce	!	!
.	16a\	.	8f/	Na	.
.	16dd\JJ	.	.	.	.
(4f/	16a\LL	.	8f/	wo-	.
.	16dd\	.	.	.	.
.	16a\	.	8g/	-dę	.
.	16dd\JJ	.	.	.	.
=17	=17	=17	=17	=17	=17
[2B-/)	16a\LL	.	4a/	ci-	.
.	16dd\	.	.	.	.
.	16a\	.	.	.	.
.	16dd\JJ	.	.	.	.
.	16a\LL	.	4g/	-che	.
.	16dd\	.	.	.	.
.	16a\	.	.	.	.
.	16dd\JJ	.	.	.	.
8B-/]	16a\LL	.	4.f/	cie-	.
.	16dd\	.	.	.	.
8r	16a\	.	.	.	.
.	16dd\JJ	.	.	.	.
4r	16a\LL	.	.	.	.
.	16dd\	.	.	.	.
.	16a\	.	8d/	-nie	.
.	16dd\JJ	.	.	.	.
=18	=18	=18	=18	=18	=18
4r	16b-\LL	.	4g/	scho-	.
.	16dd\	.	.	.	.
.	16b-\	.	.	.	.
.	16dd\JJ	.	.	.	.
(4a/	16b-\LL	.	[4f/	-dzą,	.
.	16dd\	.	.	.	.
.	16b-\	.	.	.	.
.	16dd\JJ	.	.	.	.
4f/	16b-\LL	.	8f/]	.	.
.	16dd\	.	.	.	.
!	!	!	!	!	!LO:HP:a
.	16b-\	.	8f/	Tu-	<
.	16dd\JJ	.	.	.	.
4g/	16b-\LL	.	8g/	-ma-	.
.	16dd\	.	.	.	.
.	16b-\	.	8g/	-ny	.
.	16dd\JJ	.	.	.	.
!!LO:LB:g=original
=19	=19	=19	=19	=19	=19
[2c/)	16b-\LL	.	4b-/	się	.
.	16ee-\	.	.	.	.
.	16b-\	.	.	.	.
.	16ee-\JJ	.	.	.	.
.	16b-\LL	.	4a/	po	[
.	16ee-\	.	.	.	.
.	16b-\	.	.	.	.
.	16ee-\JJ	.	.	.	.
8c/]	16b-\LL	.	4.g/	wy-	.
.	16ee-\	.	.	.	.
8r	16b-\	.	.	.	.
.	16ee-\JJ	.	.	.	.
4r	16b-\LL	.	.	.	.
.	16ee-\	.	.	.	.
.	16b-\	.	8e-/	-dmach	.
.	16ee-\JJ	.	.	.	.
=20	=20	=20	=20	=20	=20
4r	16b-\LL	.	4a/	wo-	.
.	16ee-\	.	.	.	.
.	16b-\	.	.	.	.
.	16ee-\JJ	.	.	.	.
(2g/	16b-\LL	.	[4g/	-dzą	.
.	16ee-\	.	.	.	.
.	16b-\	.	.	.	.
.	16ee-\JJ	.	.	.	.
.	16b-\LL	.	8g/]	.	.
.	16ee-\	.	.	.	.
!	!	!	!LO:TX:a:i:t=poco espress.	!	!
.	16b-\	.	8g/	A	.
.	16ee-\JJ	.	.	.	.
4c/	16b-\LL	.	8a/	rze-	.
.	16ee-\	.	.	.	.
.	16b-\	.	8b-/	-ka	.
.	16ee-\JJ	.	.	.	.
=21	=21	=21	=21	=21	=21
2g-X/	16b-\LL	.	4cc\	szem-	.
.	16cc\	.	.	.	.
.	16b-\	.	.	.	.
.	16cc\JJ	.	.	.	.
.	16b-\LL	.	4cc\	-rze,	.
.	16cc\	.	.	.	.
.	16b-\	.	.	.	.
.	16cc\JJ	.	.	.	.
4f/	16b-\LL	.	4.cc\	pły-	.
.	16cc\	.	.	.	.
.	16b-\	.	.	.	.
.	16cc\JJ	.	.	.	.
4en/)	16b-\LL	.	.	.	.
.	16cc\	.	.	.	.
.	16b-\	.	8b-\	-nie	.
.	16cc\JJ	.	.	.	.
!!LO:LB:g=original
=22	=22	=22	=22	=22	=22
[2f/	(16b-\LL	.	4b-/	w_mro-	.
.	16cc\	.	.	.	.
.	16b-\	.	.	.	.
.	16cc\JJ	.	.	.	.
.	16a\LL	.	4a/	-kach,	.
.	16cc\	.	.	.	.
.	16a\	.	.	.	.
.	16cc\JJ	.	.	.	.
8f/]	16en/LL	.	4g/	Pły-	.
.	16g/	.	.	.	.
!	!	!	!	!	!LO:HP:a
8r	16e/	<	.	.	<
.	16g/JJ	.	.	.	.
4r	16e-X/LL	.	8a/	-nie	.
.	16g/	.	.	.	.
.	16e-/	.	8b-/	i	.
.	16g/JJ	.	.	.	.
=23	=23	=23	=23	=23	=23
4r	16d/LL	.	[2b-\	pły-	.
.	16f/	.	.	.	.
.	16d/	.	.	.	.
.	16f/JJ	.	.	.	.
*clefF4	*	*	*	*	*
(2F\	16d-X/LL	.	.	.	.
.	16en/	.	.	.	.
.	16d-/	.	.	.	.
.	16e/JJ	.	.	.	.
.	16c/LL	.	8b-\]	.	.
.	16e-X/	.	.	.	.
.	16c/	.	8a/	-nie	.
.	16e-/JJ	.	.	.	.
4FF/)	16A/LL	.	8g/	co-	.
.	16e-/	.	.	.	.
.	16A/	.	8e-/	-raz	[[
.	16e-/JJ)	[	.	.	.
=24	=24	=24	=24	=24	=24
[2BB-/	16B-/LL	>	4g/	da-	.
.	16d/	.	.	.	.
.	16B-/	.	.	.	.
.	16d/JJ	.	.	.	.
.	16B-/LL	.	(4f/	-lej...	.
.	16d/	.	.	.	.
.	16B-/	.	.	.	.
.	16d/JJ	.	.	.	.
8BB-/]	16B-/LL	.	8f/)	.	.
.	16d/	.	.	.	.
8r	16B-/	.	8f/	A	.
.	16d/JJ	]	.	.	.
!	!	!LO:HP:t=poco a poco cresc.	!	!	!LO:HP:a:t=poco a poco cresc.
(4BB- (4BBB-/	16B-/LL	<	8f/	coś	<
.	16d/	.	.	.	.
.	16B-/	.	8g/	w_niej	.
.	16d/JJ	.	.	.	.
!!LO:LB:g=original
=25	=25	=25	=25	=25	=25
2.C-X 2.CC-X/))	16d-X/LL	.	4a-X/	wzdy-	.
.	16A-X/	.	.	.	.
.	16d-/	.	.	.	.
.	16A-/JJ	.	.	.	.
.	16d-/LL	.	[4a-/	-cha,	.
.	16A-/	.	.	.	.
.	16d-/	.	.	.	.
.	16A-/JJ	.	.	.	.
.	16fLL 16d-/	.	8a-/]	.	.
.	16A-/	.	.	.	.
.	16f 16d-/	.	8a-/L	coś	.
.	16A-/JJ	.	.	.	.
(4C- (4CC-/	16fLL 16d-/	.	8b-/J	.	.
.	16A-/	.	.	.	.
.	16f 16d-/	.	8cc-X\	za-	.
.	16A-/JJ	.	.	.	.
=26	=26	=26	=26	=26	=26
2.BB- 2.BBB-/))	16ryy	.	4ee-\	-wo-	.
.	16G-X/LL	.	.	.	.
.	16g-X 16d-X/	.	.	.	.
.	16G-/JJ	.	.	.	.
.	16g-LL 16d-/	.	[4dd-X\	-dzi	.
.	16G-/	.	.	.	.
.	16g- 16d-/	.	.	.	.
.	16G-/JJ	.	.	.	.
.	16g-LL 16d-/	.	8dd-\]	.	.
.	16G-/	.	.	.	.
.	16g- 16d-/	.	8b-\	Coś	.
.	16G-/JJ	.	.	.	.
(4BB- (4BBB-/	16g-LL 16d-/	.	8a-X/	się	.
.	16G-/	.	.	.	.
.	16g- 16d-/	.	8g-X/	w_niej	.
.	16G-/JJ	.	.	.	.
=27	=27	=27	=27	=27	=27
2.AA-X 2.AAA-X/))	16g-XLL 16c-X/	.	4cc-X\	skar-	.
.	16G-X/	.	.	.	.
.	16g- 16c-/	.	.	.	.
.	16G-/JJ	.	.	.	.
.	16e-LL 16c-/	.	[4e-/	-ży,	.
.	16G-/	.	.	.	.
.	16e- 16c-/	.	.	.	.
.	16G-/JJ	.	.	.	.
.	16e-LL 16c-/	.	8e-/]	.	.
.	16G-/	.	.	.	.
!	!	!	!	!	!LO:HP:a
.	16e- 16c-/	.	8e-/L	coś	<
.	16G-/JJ	.	.	.	.
(4AA- (4AAA-/	16g-LL 16e-/	.	8g-X/J	.	.
.	16G-/	.	.	.	.
.	16g- 16e-/	.	8b-\	tak	[[
.	16G-/JJ	.	.	.	.
!!LO:PB:g=original
=28	=28	=28	=28	=28	=28
2.D-X 2.DD-X/))	16g-XLL 16d-X/	.	4b-/	ża-	.
.	16c-X/	.	.	.	.
.	16g- 16d-/	.	.	.	.
.	16c-/JJ	.	.	.	.
.	16fLL 16d-/	.	4a-X/	-li,	.
.	16c-/	.	.	.	.
.	16f 16d-/	.	.	.	.
.	16c-/JJ	.	.	.	.
.	16fLL 16d-/	.	4a-/	Pły-	.
.	16c-/	.	.	.	.
.	16f 16d-/	.	.	.	.
.	16c-/JJ	.	.	.	.
(4C-X (4CC-X/	16fLL 16d-/	.	8b-\	-nie	.
.	16A-X/	.	.	.	.
.	16f 16d-/	.	8cc-X\	i	.
.	16A-/JJ	.	.	.	.
=29	=29	=29	=29	=29	=29
2BB- 2BBB-/))	16g-XLL 16d-X/	.	4.dd-X\	pły-	.
.	16G-X/	.	.	.	.
.	16g- 16d-/	.	.	.	.
.	16G-/JJ	.	.	.	.
.	16g-LL 16d-/	.	.	.	.
.	16G-/	.	.	.	.
.	16g- 16d-/	.	8cc-X\	-nie	.
.	16G-/JJ	.	.	.	.
[2GG-X [2GGG-X/	16b-LL 16f-X/	.	(8b-\	aż	.
.	16B-/	.	.	.	.
.	16b- 16f-/	.	4f-X/)	.	.
.	16B-/JJ	.	.	.	.
.	16b-LL 16f-/	.	.	.	.
.	16B-/	.	.	.	.
.	16b- 16f-/	.	8b-\	gdzieś	.
.	16B-/JJ	.	.	.	.
=30	=30	=30	=30	=30	=30
4GG-] 4GGG-/]	16b-LL 16f-X/	.	4b-\	gi-	.
.	16B-/	.	.	.	.
.	16b- 16f-/	.	.	.	.
.	16B-/JJ	.	.	.	.
(4GGn 4GGGn/	16e-LL 16d-X/	.	2e-/	-nie,	.
.	16E-/	.	.	.	.
.	16e- 16d-/	.	.	.	.
.	16E-/JJ	.	.	.	.
4AA 4AAA/	16e-LL 16c-X/	.	.	.	.
.	16E-/	.	.	.	.
.	16e- 16c-/	.	.	.	.
.	16E-/JJ	.	.	.	.
4GG 4GGG/	16e-LL 16d-/	.	8g-X/	Tra-	.
.	16E-/	.	.	.	.
.	16e- 16d-/	.	8f-X/	-ci	.
.	16E-/JJ	.	.	.	.
!!LO:LB:g=original
=31	=31	=31	=31	=31	=31
2.AA 2.AAA/)	16e-LL 16c-X/	.	2e-/	się	.
.	16E-/	>	.	.	.
.	16e- 16c-/	.	.	.	.
.	16E-/JJ	.	.	.	.
.	16e-LL 16c-/	.	.	.	.
.	16E-/	.	.	.	.
.	16e- 16c-/	.	.	.	.
.	16E-/JJ	.	.	.	.
!	!	!	!	!	!LO:HP:a
.	16e-LL 16c-/	.	8e-/	w_gó-	>
.	16E-/	.	.	.	.
.	16e- 16c-/	.	8e-/	-rach	.
.	16E-/JJ	.	.	.	.
(4GG-X (4GGG-X/	16enLL 16B-/	.	8en/	i	.
.	16En/	.	.	.	.
.	16e 16B-/	.	8e/	o-	]]
.	16E/JJ	]	.	.	.
=32	=32	=32	=32	=32	=32
[1FF [1FFF))	16fLL 16An/	.	4fn/	-bło-	.
.	16F/	.	.	.	.
.	16f 16A/	.	.	.	.
.	16F/JJ	.	.	.	.
.	16fLL 16A/	.	[4c/	-kach...	.
.	16F/	.	.	.	.
.	16f 16A/	.	.	.	.
.	16F/JJ	.	.	.	.
.	16fLL 16A/	.	8c/]	.	.
.	16F/	.	.	.	.
.	16f 16A/	.	8r	.	.
.	16F/JJ	.	.	.	.
.	16g-XLL 16B-/	.	4r	.	.
.	16G-X/	.	.	.	.
.	16g- 16B-/	.	.	.	.
.	16G-/JJ	.	.	.	.
=33	=33	=33	=33	=33	=33
4FF] 4FFF/]	16b-LL 16g-X 16e-/	.	1r	.	.
.	16B-/	.	.	.	.
.	16b- 16g- 16e-/	.	.	.	.
.	16B-/JJ	.	.	.	.
(4D-X (4DD-X/	16b-LL 16g- 16e-/	.	.	.	.
.	16B-/	<	.	.	.
.	16b- 16g- 16e-/	.	.	.	.
.	16B-/JJ	.	.	.	.
4C 4CC/))	16aLL 16g- 16e-/	.	.	.	.
.	16A/	.	.	.	.
.	16a 16g- 16e-/	.	.	.	.
.	16A/JJ	.	.	.	.
(4BB- (4BBB-/	16dd-XLL 16g- 16e-/	.	.	.	.
.	16d-X/	.	.	.	.
.	16dd- 16g- 16e-/	.	.	.	.
.	16d-/JJ	[[	.	.	.
!!LO:LB:g=original
=34	=34	=34	=34	=34	=34
2.AA 2.AAA/))	16ccLL 16g-X 16e-/	.	1r	.	.
.	16c/	.	.	.	.
.	16cc 16g- 16e-/	.	.	.	.
.	16c/JJ	.	.	.	.
.	16ccLL 16g- 16e-/	.	.	.	.
.	16c/	.	.	.	.
.	16cc 16g- 16e-/	.	.	.	.
.	16c/JJ	.	.	.	.
.	16ccLL 16g- 16e-/	.	.	.	.
.	16c/	.	.	.	.
.	16cc 16g- 16e-/	.	.	.	.
.	16c/JJ	.	.	.	.
(4GG-X (4GGG-X/	16b-LL 16e-/	.	.	.	.
.	16B-/	.	.	.	.
.	16b- 16e-/	.	.	.	.
.	16B-/JJ	.	.	.	.
=35	=35	=35	=35	=35	=35
2.FF 2.FFF/))	16anLL 16e-/	>	1r	.	.
.	16An/	.	.	.	.
.	16a 16e-/	.	.	.	.
.	16A/JJ	.	.	.	.
.	16gnLL 16e-/	.	.	.	.
.	16B-/	.	.	.	.
.	16g 16e-/	.	.	.	.
.	16B-/JJ	.	.	.	.
.	16fLL 16d/	.	.	.	.
.	16F/	.	.	.	.
.	16f 16d/	.	.	.	.
.	16F/JJ	.	.	.	.
(4FF (4FFF/	16e-LL 16c/	.	.	.	.
.	16F/	.	.	.	.
.	16e- 16c/	.	.	.	.
.	16F/JJ	]	.	.	.
=36	=36	=36	=36	=36	=36
[2BB- [2BBB-/))	16dLL 16B-/	pp	2r	.	.
.	16F/	.	.	.	.
.	16d 16B-/	.	.	.	.
.	16F/JJ	.	.	.	.
.	16dLL 16B-/	.	.	.	.
.	16F/	.	.	.	.
.	16d 16B-/	.	.	.	.
.	16F/JJ	.	.	.	.
8BB-] 8BBB-/]	16dLL 16B-/	.	8r	.	.
.	16F/	.	.	.	.
8r	16d 16B-/	.	8f/	I	.
.	16F/JJ	.	.	.	.
4r	16dLL 16B-/	.	8f/	już	.
.	16F/	.	.	.	.
.	16d 16B-/	.	8g/	nie	.
.	16F/JJ	.	.	.	.
!!LO:LB:g=original
=37	=37	=37	=37	=37	=37
[2BB- [2BBB-/	16dLL 16B-/	.	4.a/	wra-	.
.	16F/	.	.	.	.
.	16d 16B-/	.	.	.	.
.	16F/JJ	.	.	.	.
.	16dLL 16B-/	.	.	.	.
.	16F/	.	.	.	.
.	16d 16B-/	.	8g/	-ca	.
.	16F/JJ	.	.	.	.
8BB-] 8BBB-/]	16dLL 16B-/	.	4f/	ni-	.
.	16F/	.	.	.	.
8r	16d 16B-/	.	.	.	.
.	16F/JJ	.	.	.	.
4r	16dLL 16B-/	.	4d/	-gdy	.
.	16F/	.	.	.	.
.	16d 16B-/	.	.	.	.
.	16F/JJ	.	.	.	.
=38	=38	=38	=38	=38	=38
[2BB- [2BBB-/	16dLL 16B-/	.	4g/	fa-	.
.	16F/	.	.	.	.
.	16d 16B-/	.	.	.	.
.	16F/JJ	.	.	.	.
.	16dLL 16B-/	.	[4f/	-la	.
.	16F/	.	.	.	.
.	16d 16B-/	.	.	.	.
.	16F/JJ	.	.	.	.
!	!	!	!	!	!LO:HP:a
8BB-] 8BBB-/]	16dLL 16B-/	<	8f/]	.	<
.	16F/	.	.	.	.
8r	16d 16B-/	.	8f/	Co	.
.	16F/JJ	.	.	.	.
4r	16dLL 16B-/	.	8g/	ta-	.
.	16F/	.	.	.	.
.	16d 16B-/	.	8g/	-ka	[[
.	16F/JJ	[	.	.	.
=39	=39	=39	=39	=39	=39
[2BB- [2BBB-/	16dLL 16B-/	.	4.b-/	smu-	.
.	16F#X/	.	.	.	.
.	16d 16B-/	.	.	.	.
.	16F#/JJ	.	.	.	.
.	16dLL 16B-/	.	.	.	.
.	16F#/	.	.	.	.
.	16d 16B-/	.	8a/	-tna	.
.	16F#/JJ	.	.	.	.
8BB-] 8BBB-/]	16e-LL 16B-/	.	4g/	stąd	.
.	16G/	.	.	.	.
8r	16e- 16B-/	.	.	.	.
.	16G/JJ	.	.	.	.
4r	16e-LL 16B-/	.	4e-/	od-	.
.	16G/	.	.	.	.
.	16e- 16B-/	.	.	.	.
.	16G/JJ	.	.	.	.
!!LO:PB:g=original
=40	=40	=40	=40	=40	=40
2.BB- 2.BBB-/	16e-LL 16B-/	.	4a/	-cho-	.
.	16G/	.	.	.	.
.	16e- 16B-/	.	.	.	.
.	16G/JJ	.	.	.	.
.	16e-LL 16B-/	.	[4g/	-dzi,	.
.	16G/	.	.	.	.
.	16e- 16B-/	.	.	.	.
.	16G/JJ	.	.	.	.
.	16enLL 16B-/	.	8g/]	.	.
.	16G/	.	.	.	.
.	16e 16B-/	.	8g/	Prze-	.
.	16G/JJ	.	.	.	.
!	!	!	!LO:TX:a:i:t=poco espress.	!	!
(4BB- (4BBB-/	16eLL 16B-/	.	8a/	-pa-	.
.	16G/	.	.	.	.
.	16e 16B-/	.	8b-/	-da	.
.	16G/JJ	.	.	.	.
=41	=41	=41	=41	=41	=41
2AA 2AAA/))	16fLL 16c/	.	4.cc\	kę-	.
.	16F/	.	.	.	.
.	16f 16c/	.	.	.	.
.	16F/JJ	.	.	.	.
.	16fLL 16c/	.	.	.	.
.	16F/	.	.	.	.
.	16f 16c/	.	8cc\	-dyś	.
.	16F/JJ	.	.	.	.
(4GG (4GGG/	16e-XLL 16c/	.	4.cc\	w_mórz	.
.	16B-/	.	.	.	.
.	16e- 16c/	.	.	.	.
.	16B-/JJ	.	.	.	.
4GG-X 4GGG-X/	16e-LL 16c/	.	.	.	.
.	16B-/	.	.	.	.
.	16e- 16c/	.	8b-\	głę-	.
.	16B-/JJ	.	.	.	.
=42	=42	=42	=42	=42	=42
2.FF 2.FFF/))	16e-LL 16c/	.	4b-/	-bi-	.
.	16B-/	.	.	.	.
.	16e- 16c/	.	.	.	.
.	16B-/JJ	.	.	.	.
.	16e-LL 16c/	.	[4a/	-nie,	.
.	16A/	.	.	.	.
.	16e- 16c/	.	.	.	.
.	16A/JJ	.	.	.	.
.	16e-LL 16c/	.	8a/]	.	.
.	16F/	.	.	.	.
!	!	!	!	!	!LO:HP:a
.	16e- 16c/	.	8f/	I	<
.	16F/JJ	.	.	.	.
4FF 4FFF/	16dLL 16Bn/	.	8g/	już	.
.	16F/	.	.	.	.
.	16d 16B/	.	8a-X/	nie	[[
.	16F/JJ	.	.	.	.
!!LO:LB:g=original
=43	=43	=43	=43	=43	=43
2.FF 2.FFF/	16d-XLL 16B-X/	.	4a-X/	wra-	.
.	16En/	.	.	.	.
.	16d- 16B-/	.	.	.	.
.	16E/JJ	.	.	.	.
.	16d-LL 16B-/	.	[4g/	-ca	.
.	16E/	.	.	.	.
.	16d- 16B-/	.	.	.	.
.	16E/JJ	.	.	.	.
.	16cLL 16A/	.	8g/]	.	.
.	16E-X/	.	.	.	.
!	!	!	!	!	!LO:HP:a
.	16c 16A/	.	8e-/L	ni-	<
.	16E-/JJ	.	.	.	.
4FF 4FFF/	16cLL 16A/	.	8f/J	.	.
.	16E-/	.	.	.	.
.	16c 16A/	.	8g-X/	-gdy	[[
.	16E-/JJ	.	.	.	.
=44	=44	=44	=44	=44	=44
2.FF 2.FFF/	16BnLL 16A-X/	.	4g-X/	z_da-	.
.	16D/	.	.	.	.
.	16B 16A-/	.	.	.	.
.	16D/JJ	.	.	.	.
.	16BLL 16A-/	.	[4f/	-la	.
.	16D/	.	.	.	.
.	16B 16A-/	.	.	.	.
.	16D/JJ	.	.	.	.
.	16B-XLL 16G/	<	8f/]	.	.
.	16D-X/	.	.	.	.
!	!	!	!	!	!LO:HP:a
.	16B- 16G/	.	8en/	I	<
.	16D-/JJ	.	.	.	.
4FF 4FFF/	16B-LL 16G/	.	8gn/	już	.
.	16D-/	.	.	.	.
.	16B- 16G/	.	8b-/	nie	[[
.	16D-/JJ	.	.	.	.
!!LO:LB:g=original
=45	=45	=45	=45	=45	=45
2.FF 2.FFF/	16B-LL 16F/	.	[2dd\	wra-	.
.	16Dn/	.	.	.	.
.	16B- 16F/	.	.	.	.
.	16D/JJ	.	.	.	.
.	16B-LL 16F/	.	.	.	.
.	16D/	.	.	.	.
.	16B- 16F/	.	.	.	.
.	16D/JJ	[	.	.	.
.	16B-LL 16F/	.	8dd\]	.	.
.	16D/	.	.	.	.
.	16B- 16F/	.	8b-/	-ca	.
.	16D/JJ	.	.	.	.
4FF 4FFF/	16B-LL 16F/	.	8f/	ni-	.
.	16D/	.	.	.	.
.	16B- 16F/	.	8d/	-gdy	.
.	16D/JJ	.	.	.	.
=46	=46	=46	=46	=46	=46
!	!	!LO:HP:t=poco cresc.	!	!	!
2.FF 2.FFF/	16B-LL 16F/	<	(4g/	z_da-	.
.	16D/	.	.	.	.
.	16B- 16F/	.	.	.	.
.	16D/JJ	.	.	.	.
!	!	!	!	!	!LO:HP:a
.	16ALL 16F/	.	2.f/)	.	>
.	16E-/	.	.	.	.
.	16A 16F/	.	.	.	.
.	16E-/JJ	.	.	.	.
.	16B-LL 16G/	.	.	.	.
.	16E-/	.	.	.	.
.	16B- 16G/	.	.	.	.
.	16E-/JJ	.	.	.	.
4FF 4FFF/	16cLL 16A/	.	.	.	.
.	16E-/	.	.	.	.
.	16c 16A/	.	.	.	.
.	16E-/JJ	.	.	.	.
=47	=47	=47	=47	=47	=47
2.BB- 2.BBB-/	16dLL 16B-/	>	[2B-/	-la...	.
.	16D/	.	.	.	.
.	16d 16B-/	.	.	.	.
.	16D/JJ	.	.	.	.
.	16dLL 16B-/	.	.	.	]
.	16D/	.	.	.	.
.	16d 16B-/	.	.	.	.
.	16D/JJ	.	.	.	.
.	16dLL 16B-/	.	8B-/]	.	.
.	16D/	.	.	.	.
.	16d 16B-/	.	8r	.	.
.	16D/JJ	.	.	.	.
4BB- 4BBB-/	16fLL 16d/	.	4r	.	.
.	16F/	.	.	.	.
.	16f 16d/	.	.	.	.
.	16F/JJ	]]	.	.	.
!!LO:LB:g=original
=48	=48	=48	=48	=48	=48
*	*^	*	*	*	*
!	!	!	!LO:DY:rj	!	!	!
[1BB- [1BBB-	(4a/	16d\LL	p	1r	.	.
.	.	16B-\	.	.	.	.
.	.	16d\	.	.	.	.
.	.	16B-\JJ	.	.	.	.
.	2g/	16d\LL	.	.	.	.
.	.	16B-\	.	.	.	.
.	.	16d\	.	.	.	.
.	.	16B-\JJ	.	.	.	.
.	.	16d\LL	.	.	.	.
.	.	16B-\	.	.	.	.
.	.	16d\	.	.	.	.
.	.	16B-\JJ	.	.	.	.
.	4f/	16d\LL	.	.	.	.
.	.	16B-\	.	.	.	.
.	.	16d\	.	.	.	.
.	.	16B-\JJ	.	.	.	.
*	*v	*v	*	*	*	*
=49	=49	=49	=49	=49	=49
8BB-] 8BBB-/]	8b-L 8d/)	.	1r	.	.
8r	(16b-/L	pp	.	.	.
.	16dd/JJ	.	.	.	.
!	!LO:TX:b:i:t=poco rall.	!	!	!	!
4r	16b-\LL	.	.	.	.
.	16dd\	.	.	.	.
.	16b-\	.	.	.	.
.	16dd\JJ	.	.	.	.
*clefG2	*	*	*	*	*
(2f/	16b-\LL	.	.	.	.
.	16dd\	.	.	.	.
.	16b-\	.	.	.	.
.	16dd\JJ	.	.	.	.
.	16b-\LL	.	.	.	.
.	16dd\	.	.	.	.
.	16b-\	.	.	.	.
.	16dd\JJ)	.	.	.	.
=50	=50	=50	=50	=50	=50
[2f#X/)	(16a\LL	.	1r	.	.
.	16dd\	.	.	.	.
.	16a\	.	.	.	.
.	16dd\JJ	.	.	.	.
.	16a\LL	>	.	.	.
.	16dd\	.	.	.	.
.	16a\	.	.	.	.
.	16dd\JJ	.	.	.	.
8f#/]	8a/)	.	.	.	.
8r	4a/	.	.	.	.
4r	.	.	.	.	.
.	[>8a/	]]	.	.	.
*clefF4	*	*	*	*	*
!!LO:PB:g=original
=51||	=51||	=51||	=51||	=51||	=51||
!!!OMD: Tempo I.
!!!key: D
*k[f#c#]	*k[f#c#]	*	*k[f#c#]	*	*
*^	*^	*	*	*	*
(4AA/	2DD\	12a/L]	4f#\	ppp	1r	.	.
.	.	12a/	.	.	.	.	.
.	.	12a/J	.	.	.	.	.
4G/)	.	4e/	12e\L	.	.	.	.
.	.	.	12A\	.	.	.	.
.	.	.	12A\J	.	.	.	.
(4AA/	2DD\	12d/L	4d\	.	.	.	.
.	.	12a/	.	.	.	.	.
.	.	12a/J	.	.	.	.	.
4G/)	.	4B/	12B\L	.	.	.	.
.	.	.	12A\	.	.	.	.
.	.	.	12A\J	.	.	.	.
=52	=52	=52	=52	=52	=52	=52	=52
(4AA/	2DD\	12d/L	4d\	.	2r	.	.
.	.	12a/	.	.	.	.	.
.	.	12a/J	.	.	.	.	.
4G/)	.	4e/	12e\L	.	.	.	.
.	.	.	12A\	.	.	.	.
.	.	.	12A\J	.	.	.	.
(4AA/	2DD\	12f#/L	4f#\	.	4r	.	.
.	.	12a/	.	.	.	.	.
.	.	12a/J	.	.	.	.	.
!	!	!	!	!	!	!	!LO:DY:a:rj
4G/)	.	4e/	12e\L	.	4A/	Na	p
.	.	.	12A\	.	.	.	.
.	.	.	12A\J	.	.	.	.
=53	=53	=53	=53	=53	=53	=53	=53
(4AA/	2DD\	12f#/L	4f#\	.	4d/	A-	.
.	.	12a/	.	.	.	.	.
.	.	12a/J	.	.	.	.	.
4G/)	.	4e/	12e\L	.	4e/	-nioł	.
.	.	.	12A\	.	.	.	.
.	.	.	12A\J	.	.	.	.
(4AA/	2DD\	12d/L	4d\	.	(4f#/	Pań-	.
.	.	12a/	.	.	.	.	.
.	.	12a/J	.	.	.	.	.
4G/)	.	4B/	12B\L	.	8g/)	.	.
.	.	.	12A\	.	.	.	.
.	.	.	.	.	8e/	-ski	.
.	.	.	12A\J	.	.	.	.
=54	=54	=54	=54	=54	=54	=54	=54
(4AA/	2DD\	12d/L	4d\	.	4f#/	bi-	.
.	.	12a/	.	.	.	.	.
.	.	12a/J	.	.	.	.	.
4G/)	.	4e/	12e\L	.	4a/	-ją	.
.	.	.	12A\	.	.	.	.
.	.	.	12A\J	.	.	.	.
(4AA/	2DD\	12f#/L	4f#\	.	4b/	dzwo-	.
.	.	12a/	.	.	.	.	.
.	.	12a/J	.	.	.	.	.
4F#/)	.	4d/	12d\L	.	8f#/	-ny	.
.	.	.	12A\	.	.	.	.
.	.	.	.	.	8f#/	Niech	.
.	.	.	12A\J	.	.	.	.
!!LO:LB:g=original
=55	=55	=55	=55	=55	=55	=55	=55
(4AA/	2DD\	12f#/L	4f#\	.	4a/	bę-	.
.	.	12a/	.	.	.	.	.
.	.	12a/J	.	.	.	.	.
4F#/)	.	4d/	12d\L	.	8g/	-dzie	.
.	.	.	12A\	.	.	.	.
.	.	.	.	.	8f#/	Ma-	.
.	.	.	12A\J	.	.	.	.
!LO:N:vis=2	!	!	!	!	!	!	!
(4GG/	2GG\	12B/L	4B\	.	8e/	-ry-	.
.	.	12a/	.	.	.	.	.
.	.	.	.	.	8d/	-ja	.
.	.	12a/J	.	.	.	.	.
4G/)	.	4e/	12e\L	.	8g/	po-	.
.	.	.	12A\	.	.	.	.
.	.	.	.	.	8d/	-zdro-	.
.	.	.	12A\J	.	.	.	.
=56	=56	=56	=56	=56	=56	=56	=56
!LO:N:vis=2	!	!	!	!	!	!	!
(4AA/	2AA\	12d/L	4d\	.	4f#/	-wio-	.
.	.	12a/	.	.	.	.	.
.	.	12a/J	.	.	.	.	.
4G/)	.	4B/	12B\L	.	2e/	-na,	.
.	.	.	12A\	.	.	.	.
.	.	.	12A\J	.	.	.	.
!LO:N:vis=2	!	!	!	!	!	!	!
(4AA/	2AA\	12c#/L	4c#\	.	.	.	.
.	.	12a/	.	.	.	.	.
.	.	12a/J	.	.	.	.	.
4G/)	.	4e/	12e\L	.	4A/	Niech	.
.	.	.	12A\	.	.	.	.
.	.	.	12A\J	.	.	.	.
=57	=57	=57	=57	=57	=57	=57	=57
(4AA/	2DD\	12f#/L	4f#\	.	4d/	bę-	.
.	.	12a/	.	.	.	.	.
.	.	12a/J	.	.	.	.	.
4G/)	.	4e/	12e\L	.	4e/	-dzie	.
.	.	.	12A\	.	.	.	.
.	.	.	12A\J	.	.	.	.
(4AA/	2DD\	12d/L	4d\	.	(4f#/	Chry-	.
.	.	12a/	.	.	.	.	.
.	.	12a/J	.	.	.	.	.
4G/)	.	4B/	12B\L	.	8g/)	.	.
.	.	.	12A\	.	.	.	.
.	.	.	.	.	8e/	-stus	.
.	.	.	12A\J	.	.	.	.
=58	=58	=58	=58	=58	=58	=58	=58
(4AA/	2DD\	12d/L	4d\	.	4f#/	po-	.
.	.	12a/	.	.	.	.	.
.	.	12a/J	.	.	.	.	.
4G/)	.	4e/	12e\L	.	4a/	-zdro-	.
.	.	.	12A\	.	.	.	.
.	.	.	12A\J	.	.	.	.
(4AA/	2DD\	12f#/L	4f#\	.	4b/	-wio-	.
.	.	12a/	.	.	.	.	.
.	.	12a/J	.	.	.	.	.
4F#/)	.	4d/	12d\L	.	8f#/	-ny	.
.	.	.	12A\	.	.	.	.
.	.	.	.	.	8f#/	Na	.
.	.	.	12A\J	.	.	.	.
!!LO:LB:g=original
=59	=59	=59	=59	=59	=59	=59	=59
!	!	!	!	!	!	!	!LO:HP:a
(4AA/	2DD\	12f#/L	4f#\	.	4.a/	A-	<
.	.	12a/	.	<	.	.	.
.	.	12a/J	.	.	.	.	.
4G/)	.	4e/	12e\L	.	.	.	.
.	.	.	12A\	.	.	.	.
.	.	.	.	.	8a/	-nioł	.
.	.	.	12A\J	.	.	.	.
(4AA/	2DD\	12d/L	4d\	.	4a/	Pań-	.
.	.	12a/	.	.	.	.	.
.	.	12a/J	.	.	.	.	.
4Fn/)	.	4B/	12B\L	.	4b\	-ski	[[
.	.	.	12A\	.	.	.	.
.	.	.	12A\J	[	.	.	.
=60	=60	=60	=60	=60	=60	=60	=60
!	!	!	!	!	!LO:TX:a:i:t=espr.	!	!
(4GG/	2CCn\	12e/L	4e\	.	4.ccn\	bi-	.
.	.	12a/	.	.	.	.	.
.	.	12a/J	.	.	.	.	.
4E/)	.	4cn/	12c\L	.	.	.	.
.	.	.	12A\	.	.	.	.
.	.	.	.	.	8b-X\	-ją	.
.	.	.	12A\J	.	.	.	.
(4Cn/	2FFn\	12fn/L	4f\	.	4a/	dzwo-	.
.	.	12a/	.	.	.	.	.
.	.	12a/J	.	.	.	.	.
4Fn/)	.	4e/	12e\L	.	8a/	-ny	.
.	.	.	12A\	.	.	.	.
.	.	.	.	.	8a/	W_nie-	.
.	.	.	12A\J	.	.	.	.
=61	=61	=61	=61	=61	=61	=61	=61
!	!	!	!	!	!	!	!LO:HP:a
(4BB/	2BBB\	12c#/L	4c#X\	>	4.a/	-bio-	>
.	.	12a/	.	.	.	.	.
.	.	12a/J	.	.	.	.	.
4F#X/)	.	4d#X/	12d#\L	.	.	.	.
.	.	.	12A\	.	.	.	.
.	.	.	.	.	8f#X/	-sach	.
.	.	.	12A\J	.	.	.	.
(4BB/	[4EE\	12B/L	4B\	.	8g/	kę-	.
.	.	12a/	.	.	.	.	.
.	.	.	.	.	8f#/	-dyś	.
.	.	12a/J	.	.	.	.	.
4G/)	4EE\]	4e/	12e\L	]	8e/	głos	]
.	.	.	12A\	.	.	.	.
.	.	.	.	.	8d/	ich	.
.	.	.	12A\J	.	.	.	.
!!LO:LB:g=original
=62	=62	=62	=62	=62	=62	=62	=62
!LO:N:vis=2	!	!	!	!	!	!	!LO:HP:a
(4AA/	2AA\	12d/L	[4d\	<	(4.f#/	ko-	<
.	.	12a/	.	.	.	.	.
.	.	12a/J	.	.	.	.	.
4F#/)	.	4d/_	12d\L	.	.	.	.
.	.	.	12A\	.	.	.	.
.	.	.	.	.	8d/)	.	.
.	.	.	12A\J	.	.	.	.
!LO:N:vis=2	!	!	!	!	!	!	!
(4AA/	2AA\	12d/L]	4d\	.	4B/	-na,	.
.	.	12a/	.	.	.	.	.
.	.	12a/J	.	.	.	.	.
4G/)	.	4c#/	12c#\L	.	4e/	ich	[[
.	.	.	12A\	.	.	.	.
.	.	.	12A\J	[	.	.	.
=63	=63	=63	=63	=63	=63	=63	=63
!	!	!	!	!	!	!	!LO:HP:a
(4AA/	2DD\	12f#/L	4f#\	>	[2d/	głos...	>
.	.	12a/	.	.	.	.	.
.	.	12a/J	.	.	.	.	.
4G/)	.	4e/	12e\L	.	.	.	.
.	.	.	12A\	.	.	.	.
.	.	.	12A\J	.	.	.	.
(4AA/	2DD\	12d/L	4d\	.	8d/]	.	.
.	.	12a/	.	.	.	.	.
.	.	.	.	.	8r	.	]
.	.	12a/J	.	.	.	.	.
4G/)	.	4B/	12B\L	]	4r	.	.
.	.	.	12A\	.	.	.	.
.	.	.	12A\J	.	.	.	.
=64	=64	=64	=64	=64	=64	=64	=64
(4AA/	2DD\	12d/L	4d\	pp	1r	.	.
.	.	12a/	.	.	.	.	.
.	.	12a/J	.	.	.	.	.
4G/)	.	4e/	12e\L	.	.	.	.
.	.	.	12A\	.	.	.	.
.	.	.	12A\J	.	.	.	.
(4AA/	2DD\	12f#/L	4f#\	.	.	.	.
.	.	12a/	.	.	.	.	.
.	.	12a/J	.	.	.	.	.
4G/)	.	4ryy	12e\L	.	.	.	.
.	.	.	12A\	.	.	.	.
.	.	.	12A\J	.	.	.	.
=65	=65	=65	=65	=65	=65	=65	=65
(4AA/	2DD\	12d/L	[4d\	>	1r;	.	.
.	.	12a/	.	.	.	.	.
.	.	[12a/J	.	.	.	.	.
[4F#/)	.	4a_ 4d/_	12d\L	.	.	.	.
.	.	.	12A\	.	.	.	.
.	.	.	[12A\J	.	.	.	.
2F#;/]	8DD\	2a] 2d] 2A;/]	2ryy	]	.	.	.
.	8r	.	.	.	.	.	.
.	4r	.	.	.	.	.	.
*v	*v	*	*	*	*	*	*
*	*v	*v	*	*	*	*
==	==	==	==	==	==
*-	*-	*-	*-	*-	*-
!!!system-decoration: <s1>{(s2,s3)}
!!!RDF**kern: > = above
!!!RDF**kern: < = below
!!!ENC: Andrzej Gręziak
!!!END: 2022-03-23
!!!ENC: Andrzej Kubiczek
!!!END: 2022-03-26
